X:1
T: How the money goes
C:
R:Reel
Q: 232
K:G
M:4/4
L:1/8
|:G2 Bd gd Bd|cB Ac BG EF|G2 Bd gd Bd|ec AF GF ED|
G2 Bd gd Bd|cB Ac BG EF|G2 Bd gd Bd|ec AF G2 ef|
gb ef ge df|gb ef g2 ef|gb ef ge dc|BG AF G2 ef|
gb ef ge df|gb ef g2 ga|bg af gf ed|eg fa g2 g2:|
